img/icons/Mail.svg

<svg width="20" height="20" viewBox="0 0 20 20" fill="none" xmlns="http://www.w3.org/2000/svg">
<path d="M2.5 6.66675L9.0755 11.0504C9.63533 11.4236 10.3647 11.4236 10.9245 11.0504L17.5 6.66675M4.16667 15.8334H15.8333C16.7538 15.8334 17.5 15.0872 17.5 14.1667V5.83341C17.5 4.91294 16.7538 4.16675 15.8333 4.16675H4.16667C3.24619 4.16675 2.5 4.91294 2.5 5.83341V14.1667C2.5 15.0872 3.24619 15.8334 4.16667 15.8334Z" stroke="#00226C" stroke-width="2" stroke-linecap="round" stroke-linejoin="round"/>
</svg>

<svg width="20" height="20" fill="none" xmlns="http://www.w3.org/2000/svg"><path d="m2.5 6.667 6.575 4.383c.56.374 1.29.374 1.85 0L17.5 6.667M4.167 15.833h11.666c.92 0 1.667-.746 1.667-1.666V5.833c0-.92-.746-1.666-1.667-1.666H4.167c-.92 0-1.667.746-1.667 1.666v8.334c0 .92.746 1.666 1.667 1.666Z" stroke="#00226C" stroke-width="2" stroke-linecap="round" stroke-linejoin="round"/></svg>
